public/images/hashed/11f437924a92dcfe88bc246b6341f756.svg

<?xml version="1.0" encoding="UTF-8"?>
<svg width="80px" height="80px" viewBox="0 0 80 80" version="1.1" xmlns="http://www.w3.org/2000/svg" xmlns:xlink="http://www.w3.org/1999/xlink">
    <!-- Generator: Sketch 64 (93537) - https://sketch.com -->
    <title>Icon-Architecture/64/Arch_AWS-Single-Sign-On_64</title>
    <desc>Created with Sketch.</desc>
    <defs>
        <linearGradient x1="0%" y1="100%" x2="100%" y2="0%" id="linearGradient-1">
            <stop stop-color="#BD0816" offset="0%"></stop>
            <stop stop-color="#FF5252" offset="100%"></stop>
        </linearGradient>
    </defs>
    <g id="Icon-Architecture/64/Arch_AWS-Single-Sign-On_64" stroke="none" stroke-width="1" fill="none" fill-rule="evenodd">
        <g id="Icon-Architecture-BG/64/Security-Identity-Compliance" fill="url(#linearGradient-1)">
            <rect id="Rectangle" x="0" y="0" width="80" height="80"></rect>
        </g>
        <path d="M67.438,62.3245478 L52.56,47.4465478 C52.251,47.1385478 52.178,46.6655478 52.379,46.2795478 C54.457,42.2765478 53.659,37.2315478 50.439,34.0115478 C48.143,31.7155478 44.972,30.6245478 41.748,31.0125478 C38.518,31.4035478 35.67,33.2675478 33.936,36.1285478 C31.898,39.4875478 31.989,43.7965478 34.166,47.1075478 C37.187,51.7025478 43.076,53.2915478 47.864,50.8085478 C48.251,50.6085478 48.722,50.6805478 49.032,50.9895478 L51.5,53.4575478 C51.687,53.6445478 51.792,53.8995478 51.792,54.1645478 L51.792,57.4075478 L55.035,57.4075478 C55.299,57.4075478 55.554,57.5125478 55.742,57.6995478 L57.157,59.1135478 C57.344,59.3015478 57.45,59.5555478 57.45,59.8215478 L57.45,63.0635478 L60.692,63.0635478 C60.958,63.0635478 61.211,63.1695478 61.399,63.3565478 L63.254,65.2125478 L67.196,65.4755478 L67.438,62.3245478 Z M69.467,62.0195478 L69.114,66.6155478 C69.074,67.1395478 68.636,67.5385478 68.118,67.5385478 C68.095,67.5385478 68.073,67.5385478 68.05,67.5365478 L62.747,67.1825478 C62.504,67.1665478 62.277,67.0635478 62.106,66.8925478 L60.278,65.0635478 L56.45,65.0635478 C55.897,65.0635478 55.45,64.6165478 55.45,64.0635478 L55.45,60.2355478 L54.621,59.4075478 L50.792,59.4075478 C50.24,59.4075478 49.792,58.9595478 49.792,58.4075478 L49.792,54.5785478 L48.12,52.9055478 C42.546,55.3915478 35.941,53.4495478 32.494,48.2065478 C29.896,44.2545478 29.791,39.1065478 32.225,35.0915478 C34.281,31.7015478 37.665,29.4915478 41.507,29.0275478 C45.349,28.5655478 49.12,29.8645478 51.853,32.5975478 C55.506,36.2505478 56.536,41.8835478 54.475,46.5335478 L69.177,61.2355478 C69.383,61.4425478 69.49,61.7285478 69.467,62.0195478 L69.467,62.0195478 Z M45.423,41.3455478 C45.423,40.6775478 45.163,40.0495478 44.69,39.5775478 C44.217,39.1045478 43.589,38.8445478 42.922,38.8445478 C42.255,38.8445478 41.627,39.1045478 41.155,39.5765478 C40.18,40.5515478 40.18,42.1375478 41.155,43.1125478 C42.129,44.0875478 43.715,44.0875478 44.69,43.1125478 L44.69,43.1125478 C45.163,42.6395478 45.423,42.0125478 45.423,41.3455478 L45.423,41.3455478 Z M46.104,38.1625478 C46.955,39.0125478 47.423,40.1425478 47.423,41.3455478 C47.423,42.5465478 46.955,43.6765478 46.104,44.5265478 L46.104,44.5275478 C45.227,45.4045478 44.075,45.8425478 42.922,45.8425478 C41.77,45.8425478 40.618,45.4045478 39.741,44.5265478 C37.987,42.7715478 37.987,39.9165478 39.741,38.1625478 C40.59,37.3125478 41.72,36.8445478 42.922,36.8445478 C44.125,36.8445478 45.254,37.3125478 46.104,38.1625478 L46.104,38.1625478 Z M22.001,44.9215478 L28,44.9215478 L28,46.9215478 L22,46.9215478 C16.146,46.9085478 11.326,42.7565478 11.024,37.4675478 C11.011,37.2175478 11,36.9865478 11,36.7545478 C11,30.2305478 15.627,27.8055478 18.351,26.9445478 C18.333,26.6565478 18.324,26.3655478 18.324,26.0695478 C18.324,20.7195478 22.081,15.1815478 27.063,13.1885478 C32.87,10.8445478 39.028,12.0105478 43.526,16.3065478 C44.713,17.4265478 46.231,19.1005478 47.295,21.1415478 C48.431,20.1435478 49.714,19.6545478 51.183,19.6545478 C54.086,19.6545478 57.34,21.9905478 57.931,27.0965478 C63.95,28.4715478 67,31.7745478 67,36.9215478 C67,42.3485478 63.778,45.9895478 58.161,46.9085478 L57.838,44.9345478 C61.105,44.4005478 65,42.5755478 65,36.9215478 C65,32.5405478 62.397,29.9925478 56.808,28.9035478 C56.361,28.8155478 56.029,28.4365478 56.001,27.9815478 C55.777,24.2565478 53.795,21.6545478 51.183,21.6545478 C49.848,21.6545478 48.801,22.2345478 47.789,23.5355478 C47.566,23.8215478 47.209,23.9635478 46.848,23.9105478 C46.491,23.8555478 46.19,23.6115478 46.063,23.2725478 C45.191,20.9425478 43.454,18.9875478 42.15,17.7575478 C38.231,14.0155478 32.872,13.0035478 27.808,15.0445478 C23.61,16.7235478 20.324,21.5665478 20.324,26.0695478 C20.324,26.5745478 20.354,27.0605478 20.417,27.5545478 C20.421,27.5915478 20.423,27.6295478 20.424,27.6675478 L20.424,27.6695478 L20.424,27.6715478 L20.424,27.6735478 L20.424,27.6755478 L20.424,27.6755478 L20.424,27.6775478 L20.424,27.6775478 L20.424,27.6785478 L20.424,27.6795478 L20.424,27.6815478 C20.424,28.1865478 20.05,28.6085478 19.564,28.6775478 C17.065,29.3115478 13,31.1975478 13,36.7545478 C13,36.9515478 13.01,37.1485478 13.02,37.3375478 C13.262,41.5865478 17.208,44.9115478 22.001,44.9215478 L22.001,44.9215478 Z" id="AWS-Single-Sign-On_Icon_64_Squid" fill="#FFFFFF"></path>
    </g>
</svg>

<svg xmlns="http://www.w3.org/2000/svg" width="80" height="80"><defs><linearGradient id="a" x1="0%" x2="100%" y1="100%" y2="0%"><stop offset="0%" stop-color="#BD0816"/><stop offset="100%" stop-color="#FF5252"/></linearGradient></defs><g fill="none" fill-rule="evenodd"><path fill="url(#a)" d="M0 0h80v80H0z"/><path fill="#FFF" d="M67.438 62.325 52.56 47.447a.998.998 0 0 1-.181-1.167c2.078-4.003 1.28-9.048-1.94-12.268a10.454 10.454 0 0 0-8.691-3c-3.23.392-6.078 2.256-7.812 5.117-2.038 3.359-1.947 7.668.23 10.979 3.021 4.595 8.91 6.184 13.698 3.7.387-.2.858-.127 1.168.182l2.468 2.468a1 1 0 0 1 .292.707v3.243h3.243c.264 0 .519.105.707.292l1.415 1.414c.187.188.293.442.293.708v3.242h3.242c.266 0 .519.106.707.293l1.855 1.856 3.942.263.242-3.151Zm2.029-.305-.353 4.596a1 1 0 0 1-.996.923c-.023 0-.045 0-.068-.002l-5.303-.354a.997.997 0 0 1-.641-.29l-1.828-1.83H56.45a1 1 0 0 1-1-1v-3.827l-.829-.828h-3.829a1 1 0 0 1-1-1v-3.83l-1.672-1.672c-5.574 2.486-12.179.544-15.626-4.7-2.598-3.951-2.703-9.1-.269-13.114 2.056-3.39 5.44-5.6 9.282-6.064a12.44 12.44 0 0 1 10.346 3.57c3.653 3.653 4.683 9.286 2.622 13.936l14.702 14.702a1 1 0 0 1 .29.784ZM45.423 41.346a2.48 2.48 0 0 0-.733-1.768 2.484 2.484 0 0 0-1.768-.733c-.667 0-1.295.26-1.767.732a2.503 2.503 0 0 0 0 3.536c.974.975 2.56.975 3.535 0 .473-.473.733-1.1.733-1.767Zm.681-3.183a4.468 4.468 0 0 1 1.319 3.183 4.467 4.467 0 0 1-1.319 3.18v.002a4.485 4.485 0 0 1-3.182 1.315 4.481 4.481 0 0 1-3.181-1.316 4.506 4.506 0 0 1 0-6.364 4.466 4.466 0 0 1 3.181-1.318c1.203 0 2.332.468 3.182 1.318Zm-24.103 6.759H28v2h-6c-5.854-.013-10.674-4.165-10.976-9.454-.013-.25-.024-.481-.024-.713 0-6.524 4.627-8.95 7.351-9.81a14.01 14.01 0 0 1-.027-.875c0-5.35 3.757-10.888 8.739-12.881 5.807-2.344 11.965-1.178 16.463 3.118 1.187 1.12 2.705 2.794 3.769 4.835 1.136-.998 2.419-1.487 3.888-1.487 2.903 0 6.157 2.336 6.748 7.442C63.95 28.472 67 31.775 67 36.922c0 5.427-3.222 9.068-8.839 9.987l-.323-1.974C61.105 44.4 65 42.575 65 36.922c0-4.381-2.603-6.93-8.192-8.018a1.003 1.003 0 0 1-.807-.922c-.224-3.725-2.206-6.327-4.818-6.327-1.335 0-2.382.58-3.394 1.88-.223.287-.58.429-.941.376a1.002 1.002 0 0 1-.785-.638c-.872-2.33-2.609-4.285-3.913-5.515-3.919-3.742-9.278-4.754-14.342-2.713-4.198 1.679-7.484 6.522-7.484 11.025 0 .505.03.99.093 1.485.004.037.006.075.007.113v.014c0 .505-.374.927-.86.996-2.499.634-6.564 2.52-6.564 8.077 0 .197.01.394.02.583.242 4.249 4.188 7.574 8.981 7.584Z"/></g></svg>
